lib/brands/icons/dynamics-supply-chain-management.svg

<svg xmlns="http://www.w3.org/2000/svg" fill="none" aria-hidden="true" viewBox="0 0 48 48"><g id="dynamics-supply-chain-management-Icon"><g id="Group"><path id="Vector" fill="#145399" d="M13.651 34.1074C9.43624 34.1074 6 30.698 6 26.4564V13.8658C6 9.65107 9.43624 6.24167 13.651 6.24167C17.8658 6.24167 21.302 9.65107 21.302 13.8658V26.4564C21.302 30.698 17.8658 34.1074 13.651 34.1074Z"/><path id="Vector_2" fill="#8DD6ED" d="M34.3492 41.7583C30.1345 41.7583 26.6982 38.3221 26.6982 34.1073V21.5167C26.6982 17.3019 30.1345 13.8657 34.3492 13.8657C38.564 13.8657 42.0003 17.3019 42.0003 21.5167V34.1073C41.9734 38.3221 38.564 41.7583 34.3492 41.7583Z"/><g id="Vector_3" filter="url(#filter0_d_94_19186)"><path fill="#16ADE1" d="M13.0605 6.24167C13.0605 6.24167 17.1142 8.38932 17.1142 11.5303V29.0873C17.1142 32.4162 17.1411 36.2014 18.9666 38.9397C19.0471 39.0739 19.1814 39.235 19.3424 39.396C20.5236 40.6309 22.0001 41.2484 23.6646 41.5437C24.2552 41.6511 24.8458 41.7048 25.4632 41.7048H33.5438C33.5438 41.7048 30.4834 39.7719 30.4834 34.6712C30.4834 30.5907 30.6176 21.3021 30.6981 15.7987C30.7518 13.0336 30.027 10.3759 28.0941 8.55039C28.0941 8.55039 26.3491 6.53697 23.3693 6.26851H13.0605V6.24167Z"/></g></g></g><defs><filter id="filter0_d_94_19186" width="24.4834" height="39.4631" x="9.06055" y="4.24167" color-interpolation-filters="sRGB" filterUnits="userSpaceOnUse"><feFlood flood-opacity="0" result="BackgroundImageFix"/><feColorMatrix in="SourceAlpha" result="hardAlpha" values="0 0 0 0 0 0 0 0 0 0 0 0 0 0 0 0 0 0 127 0"/><feOffset dx="-2"/><feGaussianBlur stdDeviation="1"/><feComposite in2="hardAlpha" operator="out"/><feColorMatrix values="0 0 0 0 0 0 0 0 0 0 0 0 0 0 0 0 0 0 0.2 0"/><feBlend in2="BackgroundImageFix" result="effect1_dropShadow_94_19186"/><feBlend in="SourceGraphic" in2="effect1_dropShadow_94_19186" result="shape"/></filter></defs></svg>

<svg xmlns="http://www.w3.org/2000/svg" fill="none" aria-hidden="true" viewBox="0 0 48 48"><path fill="#145399" d="M13.651 34.108A7.648 7.648 0 0 1 6 26.457V13.865c0-4.215 3.436-7.624 7.651-7.624s7.651 3.41 7.651 7.624v12.59a7.648 7.648 0 0 1-7.651 7.652Z"/><path fill="#8DD6ED" d="M34.349 41.758c-4.215 0-7.651-3.436-7.651-7.65V21.516c0-4.215 3.436-7.651 7.651-7.651S42 17.302 42 21.516v12.591c-.027 4.215-3.436 7.651-7.651 7.651Z"/><g filter="url(#a)"><path fill="#16ADE1" d="M13.06 6.242s4.054 2.147 4.054 5.288v17.557c0 3.33.027 7.114 1.852 9.853.08.134.215.295.376.456 1.181 1.235 2.658 1.852 4.322 2.148a9.96 9.96 0 0 0 1.799.16h8.08s-3.06-1.932-3.06-7.033c0-4.08.134-13.369.215-18.872.054-2.765-.671-5.423-2.604-7.249 0 0-1.745-2.013-4.725-2.281H13.06v-.027Z"/></g><defs><filter id="a" width="24.483" height="39.463" x="9.06" y="4.242" color-interpolation-filters="sRGB" filterUnits="userSpaceOnUse"><feFlood flood-opacity="0" result="BackgroundImageFix"/><feColorMatrix in="SourceAlpha" result="hardAlpha" values="0 0 0 0 0 0 0 0 0 0 0 0 0 0 0 0 0 0 127 0"/><feOffset dx="-2"/><feGaussianBlur stdDeviation="1"/><feComposite in2="hardAlpha" operator="out"/><feColorMatrix values="0 0 0 0 0 0 0 0 0 0 0 0 0 0 0 0 0 0 0.2 0"/><feBlend in2="BackgroundImageFix" result="effect1_dropShadow_5_2491"/><feBlend in="SourceGraphic" in2="effect1_dropShadow_5_2491" result="shape"/></filter></defs></svg>
